X: 24168
T: Lord Aboyne's Welcome
R: reel
M: 4/4
K: Gmajor
G>A|B>AB>d {c}B2(TAG)|TE>DEG A2B>d|Te2(d>c) d(BTAG)|(D>E)(G>A) G2:|
|:TB>A|G>AB>c {Bc}d3e|Td(c/B/) AB d2zd|e>fg>a Tf2 (g/f/e/d/)|B2e>f Te3d|
g>a (b/a/b) B2 (c/B/TA/G/)|AB {e}d(c/B/) A2B>d|Te2d>c d(BTAG)|(D>E)(G>A) G2:|

